_site/images/icons/quotes.svg

<svg height="22" viewBox="0 0 28 22" width="28" xmlns="http://www.w3.org/2000/svg"><path d="m32.5867684 32.8601041c1.488-5.13 5.158-8.86 8.727-8.86.2855083-.0018319.5706192.0215927.852.07.1555708.0284097.2930119.1185942.381.25.0858171.1297292.1103145.2906075.067.44l-.735 2.53c-.0761028.2480429-.3108602.4127849-.57.4h-.058c-1.323 0-3.742 1.91-4.975 6.17-.048.17-.094.34-.139.52 1.4140199-.6680032 3.0190217-.8132683 4.53-.41 1.5960187.3997443 2.9633683 1.4262751 3.7926538 2.8473159.8292856 1.4210408 1.0504127 3.1164797.6133462 4.7026841-.8220548 2.681344-3.3085711 4.5036232-6.113 4.48-.5789224-.0015397-1.155152-.0788634-1.714-.23-2.3434354-.7225675-4.1328318-2.6263425-4.709-5.01-.732316-2.5848624-.7149758-5.3246142.05-7.9zm23.435-8.86c.2855099-.0018738.5706245.0215511.852.07.1558504.0283747.2936165.1185358.382.25.0849623.1300812.1090575.2907158.066.44l-.735 2.53c-.0751812.248711-.3105453.4138788-.57.4h-.057c-1.324 0-3.742 1.91-4.975 6.17-.049.17-.1.34-.14.52 1.4140199-.6680032 3.0190217-.8132683 4.53-.41 1.5960187.3997443 2.9633683 1.4262751 3.7926538 2.8473159.8292856 1.4210408 1.0504127 3.1164797.6133462 4.7026841-.8217713 2.6815455-3.3084644 4.5039543-6.113 4.48-.5789224-.0015397-1.155152-.0788634-1.714-.23-2.3434354-.7225675-4.1328318-2.6263425-4.709-5.01-.732316-2.5848624-.7149758-5.3246142.05-7.9 1.488-5.13 5.159-8.86 8.727-8.86z" fill="#333" fill-rule="evenodd" opacity=".3" transform="translate(-32 -24)"/></svg>

<?xml version="1.0" encoding="UTF-8"?>
<svg width="28px" height="22px" viewBox="0 0 28 22" version="1.1" xmlns="http://www.w3.org/2000/svg" xmlns:xlink="http://www.w3.org/1999/xlink">
    <!-- Generator: Sketch 52.6 (67491) - http://www.bohemiancoding.com/sketch -->
    <title>quotes</title>
    <desc>Created with Sketch.</desc>
    <g id="Landing-page" stroke="none" stroke-width="1" fill="none" fill-rule="evenodd" opacity="0.3">
        <g id="1.1--Home" transform="translate(-171.000000, -8803.000000)" fill="#333333">
            <g id="Group-49" transform="translate(0.000000, 8580.000000)">
                <g id="mentions" transform="translate(1.000000, 0.000000)">
                    <g id="Group-17" transform="translate(138.000000, 199.000000)">
                        <path d="M32.5867684,32.8601041 C34.0747684,27.7301041 37.7447684,24.0001041 41.3137684,24.0001041 C41.5992767,23.9982722 41.8843876,24.0216968 42.1657684,24.0701041 C42.3213392,24.0985138 42.4587803,24.1886983 42.5467684,24.3201041 C42.6325855,24.4498333 42.6570829,24.6107116 42.6137684,24.7601041 L41.8787684,27.2901041 C41.8026656,27.538147 41.5679082,27.702889 41.3087684,27.6901041 L41.2507684,27.6901041 C39.9277684,27.6901041 37.5087684,29.6001041 36.2757684,33.8601041 C36.2277684,34.0301041 36.1817684,34.2001041 36.1367684,34.3801041 C37.5507883,33.7121009 39.1557901,33.5668358 40.6667684,33.9701041 C42.2627871,34.3698484 43.6301367,35.3963792 44.4594222,36.81742 C45.2887078,38.2384608 45.5098349,39.9338997 45.0727684,41.5201041 C44.2507136,44.2014481 41.7641973,46.0237273 38.9597684,46.0001041 C38.380846,45.9985644 37.8046164,45.9212407 37.2457684,45.7701041 C34.902333,45.0475366 33.1129366,43.1437616 32.5367684,40.7601041 C31.8044524,38.1752417 31.8217926,35.4354899 32.5867684,32.8601041 Z M56.0217684,24.0001041 C56.3072783,23.9982303 56.5923929,24.0216552 56.8737684,24.0701041 C57.0296188,24.0984788 57.1673849,24.1886399 57.2557684,24.3201041 C57.3407307,24.4501853 57.3648259,24.6108199 57.3217684,24.7601041 L56.5867684,27.2901041 C56.5115872,27.5388151 56.2762231,27.7039829 56.0167684,27.6901041 L55.9597684,27.6901041 C54.6357684,27.6901041 52.2177684,29.6001041 50.9847684,33.8601041 C50.9357684,34.0301041 50.8847684,34.2001041 50.8447684,34.3801041 C52.2587883,33.7121009 53.8637901,33.5668358 55.3747684,33.9701041 C56.9707871,34.3698484 58.3381367,35.3963792 59.1674222,36.81742 C59.9967078,38.2384608 60.2178349,39.9338997 59.7807684,41.5201041 C58.9589971,44.2016496 56.472304,46.0240584 53.6677684,46.0001041 C53.088846,45.9985644 52.5126164,45.9212407 51.9537684,45.7701041 C49.610333,45.0475366 47.8209366,43.1437616 47.2447684,40.7601041 C46.5124524,38.1752417 46.5297926,35.4354899 47.2947684,32.8601041 C48.7827684,27.7301041 52.4537684,24.0001041 56.0217684,24.0001041 L56.0217684,24.0001041 Z" id="quotes"></path>
                    </g>
                </g>
            </g>
        </g>
    </g>
</svg>
